static/assets/img/icons/theme/home/chair-2.svg

<svg height="24" viewBox="0 0 24 24" width="24" xmlns="http://www.w3.org/2000/svg"><g fill="none" fill-rule="evenodd"><path d="m0 0h24v24h-24z" opacity="0"/><g fill="#000"><path d="m6.54246133 21.5014597 1.59815707-5.9644033c.14294181-.5334661.69127876-.8500486 1.22474487-.7071068.5334661.1429418.85004863.6912788.70710673 1.2247449l-1.59815701 5.9644033c-.14294181.5334661-.69127877.8500486-1.22474487.7071068-.53346611-.1429418-.8500486-.6912788-.70710679-1.2247449zm10.90712837-.0303501c.1429418.5334661-.1736407 1.081803-.7071068 1.2247449-.5334661.1429418-1.081803-.1736407-1.2247449-.7071068l-1.3028884-4.8624457c-.1429418-.5334661.1736407-1.0818031.7071068-1.2247449s1.0818031.1736407 1.2247449.7071068z" opacity=".3"/><path d="m7.36092084 1h9.27815836c1.1045695 0 2 .8954305 2 2 0 .11016172-.0091017.22013512-.0272122.32879797l-1.5422336 9.25340153c-.0401823.241094-.2487774.4178005-.4931969.4178005h-9.15287296c-.24441957 0-.45301463-.1767065-.49319696-.4178005l-1.54223358-9.25340153c-.18159011-1.08954064.55444923-2.11999571 1.64398987-2.30158582.10866285-.01811047.21863625-.02721215.32879797-.02721215zm-1.86092084 13h13c.8284271 0 1.5.6715729 1.5 1.5s-.6715729 1.5-1.5 1.5h-13c-.82842712 0-1.5-.6715729-1.5-1.5s.67157288-1.5 1.5-1.5z"/></g></g></svg>

<svg width="24px" height="24px" viewBox="0 0 24 24" version="1.1" xmlns="http://www.w3.org/2000/svg" xmlns:xlink="http://www.w3.org/1999/xlink">
    <title>Icon For Chair#2</title>
    <g stroke="none" stroke-width="1" fill="none" fill-rule="evenodd">
        <rect opacity="0" x="0" y="0" width="24" height="24"></rect>
        <path d="M6.54246133,21.5014597 L8.1406184,15.5370564 C8.28356021,15.0035903 8.83189716,14.6870078 9.36536327,14.8299496 C9.89882937,14.9728914 10.2154119,15.5212284 10.07247,16.0546945 L8.47431299,22.0190978 C8.33137118,22.5525639 7.78303422,22.8691464 7.24956812,22.7262046 C6.71610201,22.5832628 6.39951952,22.0349258 6.54246133,21.5014597 Z M17.4495897,21.4711096 C17.5925315,22.0045757 17.275949,22.5529126 16.7424829,22.6958545 C16.2090168,22.8387963 15.6606799,22.5222138 15.517738,21.9887477 L14.2148496,17.126302 C14.0719078,16.5928359 14.3884903,16.0444989 14.9219564,15.9015571 C15.4554225,15.7586153 16.0037595,16.0751978 16.1467013,16.6086639 L17.4495897,21.4711096 Z" fill="#000000" opacity="0.3"></path>
        <path d="M7.36092084,1 L16.6390792,1 C17.7436487,1 18.6390792,1.8954305 18.6390792,3 C18.6390792,3.11016172 18.6299775,3.22013512 18.611867,3.32879797 L17.0696334,12.5821995 C17.0294511,12.8232935 16.820856,13 16.5764365,13 L7.42356354,13 C7.17914397,13 6.97054891,12.8232935 6.93036658,12.5821995 L5.388133,3.32879797 C5.20654289,2.23925733 5.94258223,1.20880226 7.03212287,1.02721215 C7.14078572,1.00910168 7.25075912,1 7.36092084,1 Z M5.5,14 L18.5,14 C19.3284271,14 20,14.6715729 20,15.5 C20,16.3284271 19.3284271,17 18.5,17 L5.5,17 C4.67157288,17 4,16.3284271 4,15.5 C4,14.6715729 4.67157288,14 5.5,14 Z" fill="#000000"></path>
    </g>
</svg>
